packages/sources/icons/src/vitamix/close-circle-line.svg

<svg width="16" height="16" viewBox="0 0 16 16" xmlns="http://www.w3.org/2000/svg"><path fill-rule="evenodd" clip-rule="evenodd" d="M8.00004 14.6666C4.31804 14.6666 1.33337 11.682 1.33337 7.99998C1.33337 4.31798 4.31804 1.33331 8.00004 1.33331C11.682 1.33331 14.6667 4.31798 14.6667 7.99998C14.6667 11.682 11.682 14.6666 8.00004 14.6666ZM8.00004 13.3333C10.9456 13.3333 13.3334 10.9455 13.3334 7.99998C13.3334 5.05446 10.9456 2.66665 8.00004 2.66665C5.05452 2.66665 2.66671 5.05446 2.66671 7.99998C2.66671 10.9455 5.05452 13.3333 8.00004 13.3333ZM9.88538 5.17129L8.00004 7.05729L6.11471 5.17129L5.17138 6.11462L7.05738 7.99995L5.17138 9.88529L6.11471 10.8286L8.00004 8.94262L9.88538 10.8286L10.8287 9.88529L8.94271 7.99995L10.8287 6.11462L9.88538 5.17129Z"/></svg>

<svg width="16" height="16" xmlns="http://www.w3.org/2000/svg"><path fill-rule="evenodd" clip-rule="evenodd" d="M8 14.667A6.666 6.666 0 1 1 8 1.334a6.666 6.666 0 0 1 0 13.333Zm0-1.334A5.333 5.333 0 1 0 8 2.667a5.333 5.333 0 0 0 0 10.666Zm1.885-8.162L8 7.057 6.115 5.171l-.944.944L7.057 8 5.171 9.885l.944.944L8 8.943l1.885 1.886.944-.944L8.943 8l1.886-1.885-.944-.944Z"/></svg>
